assets/svg/discord-mono.svg

<svg fill="none" height="24" viewBox="0 0 25 24" width="25" xmlns="http://www.w3.org/2000/svg" xmlns:xlink="http://www.w3.org/1999/xlink"><clipPath id="a"><path d="m2.5 2h20v20h-20z"/></clipPath><g clip-path="url(#a)"><path d="m19.4566 5.28705c2.2588 3.321 3.3743 7.06695 2.9573 11.37945-.0018.0183-.0113.035-.0263.046-1.7105 1.256-3.3677 2.0183-5.0017 2.5238-.0127.0038-.0263.0036-.0389-.0006-.0126-.0043-.0236-.0124-.0314-.0232-.3774-.5252-.7204-1.079-1.0209-1.6605-.0173-.0342-.0015-.0755.034-.089.5447-.2052 1.0627-.4512 1.5609-.7425.0393-.023.0418-.0792.0055-.1062-.1057-.0785-.2105-.161-.3107-.2435-.0188-.0153-.044-.0183-.0653-.008-3.2347 1.4937-6.7782 1.4937-10.05118 0-.02125-.0095-.0465-.0063-.06475.0087-.1.0825-.205.1643-.30975.2428-.03625.027-.03325.0832.00625.1062.49825.2858 1.01625.5373 1.56024.7435.03526.0135.05201.0538.03451.088-.294.5823-.637 1.136-1.0215 1.6613-.01675.0212-.04425.031-.07025.023-1.62625-.5055-3.2835-1.2678-4.99399-2.5238-.01425-.011-.0245-.0285-.026-.0467-.3485-3.7303.36174-7.50725 2.95449-11.3795.00625-.01025.01575-.01825.02675-.023 1.27575-.5855 2.6425-1.01625 4.07099-1.26225.026-.004.052.008.0655.031.1765.3125.37829.71325.51479 1.04075 1.5057-.23 3.035-.23 4.5722 0 .1365-.3205.3313-.72825.507-1.04075.0063-.01141.016-.02055.0277-.02611.0118-.00557.025-.00728.0378-.00489 1.4293.24675 2.796.6775 4.0707 1.26225.0113.00475.0205.01275.026.02375zm-8.4759 7.09245c.0157-1.1027-.7883-2.0152-1.79754-2.0152-1.00099 0-1.79724.9045-1.79724 2.0152 0 1.1105.812 2.015 1.79724 2.015 1.00124 0 1.79754-.9045 1.79754-2.015zm6.6454 0c.0158-1.1027-.7882-2.0152-1.7972-2.0152-1.0012 0-1.7975.9045-1.7975 2.0152 0 1.1105.812 2.015 1.7975 2.015 1.009 0 1.7972-.9045 1.7972-2.015z" fill="#00005a"/></g></svg>

<svg width="25" height="24" viewBox="0 0 25 24" fill="none" xmlns="http://www.w3.org/2000/svg">
<g clip-path="url(#clip0_9_667)">
<path d="M19.4566 5.28705C21.7154 8.60805 22.8309 12.354 22.4139 16.6665C22.4121 16.6848 22.4026 16.7015 22.3876 16.7125C20.6771 17.9685 19.0199 18.7308 17.3859 19.2363C17.3732 19.2401 17.3596 19.2399 17.347 19.2357C17.3344 19.2314 17.3234 19.2233 17.3156 19.2125C16.9382 18.6873 16.5952 18.1335 16.2947 17.552C16.2774 17.5178 16.2932 17.4765 16.3287 17.463C16.8734 17.2578 17.3914 17.0118 17.8896 16.7205C17.9289 16.6975 17.9314 16.6413 17.8951 16.6143C17.7894 16.5358 17.6846 16.4533 17.5844 16.3708C17.5656 16.3555 17.5404 16.3525 17.5191 16.3628C14.2844 17.8565 10.7409 17.8565 7.46792 16.3628C7.44667 16.3533 7.42142 16.3565 7.40317 16.3715C7.30317 16.454 7.19817 16.5358 7.09342 16.6143C7.05717 16.6413 7.06017 16.6975 7.09967 16.7205C7.59792 17.0063 8.11592 17.2578 8.65991 17.464C8.69517 17.4775 8.71192 17.5178 8.69442 17.552C8.40042 18.1343 8.05742 18.688 7.67292 19.2133C7.65617 19.2345 7.62867 19.2443 7.60267 19.2363C5.97642 18.7308 4.31917 17.9685 2.60868 16.7125C2.59443 16.7015 2.58418 16.684 2.58268 16.6658C2.23418 12.9355 2.94442 9.15855 5.53717 5.2863C5.54342 5.27605 5.55292 5.26805 5.56392 5.2633C6.83967 4.6778 8.20642 4.24705 9.63491 4.00105C9.66091 3.99705 9.68691 4.00905 9.70041 4.03205C9.87691 4.34455 10.0787 4.7453 10.2152 5.0728C11.7209 4.8428 13.2502 4.8428 14.7874 5.0728C14.9239 4.7523 15.1187 4.34455 15.2944 4.03205C15.3007 4.02064 15.3104 4.0115 15.3221 4.00594C15.3339 4.00037 15.3471 3.99866 15.3599 4.00105C16.7892 4.2478 18.1559 4.67855 19.4306 5.2633C19.4419 5.26805 19.4511 5.27605 19.4566 5.28705ZM10.9807 12.3795C10.9964 11.2768 10.1924 10.3643 9.18316 10.3643C8.18217 10.3643 7.38592 11.2688 7.38592 12.3795C7.38592 13.49 8.19792 14.3945 9.18316 14.3945C10.1844 14.3945 10.9807 13.49 10.9807 12.3795ZM17.6261 12.3795C17.6419 11.2768 16.8379 10.3643 15.8289 10.3643C14.8277 10.3643 14.0314 11.2688 14.0314 12.3795C14.0314 13.49 14.8434 14.3945 15.8289 14.3945C16.8379 14.3945 17.6261 13.49 17.6261 12.3795Z" fill="#00005A"/>
</g>
<defs>
<clipPath id="clip0_9_667">
<rect width="20" height="20" fill="white" transform="translate(2.5 2)"/>
</clipPath>
</defs>
</svg>
